static/assets/img/icons/theme/home/bulb-1.svg

<svg height="24" viewBox="0 0 24 24" width="24" xmlns="http://www.w3.org/2000/svg"><g fill="none" fill-rule="evenodd"><path d="m0 0h24v24h-24z" opacity="0"/><g fill="#000"><circle cx="12" cy="9" opacity=".3" r="8"/><path d="m14.5297296 11h-5.06788472l2.51399002 6.4645458zm-3.9617343 8.3624463-4.02984018-10.3624463h10.93211528l-4.095774 10.3674279-1.3985559-.5525159z" fill-rule="nonzero" opacity=".3"/><path d="m10 22h4c0 1.1045695-.8954305 2-2 2-1.1045695 0-2-.8954305-2-2z" opacity=".3"/><path d="m9 20c-.55228475 0-1-.4477153-1-1s.44771525-1 1-1c-.55228475 0-1-.4477153-1-1s.44771525-1 1-1h6c.5522847 0 1 .4477153 1 1s-.4477153 1-1 1c.5522847 0 1 .4477153 1 1s-.4477153 1-1 1c.5522847 0 1 .4477153 1 1s-.4477153 1-1 1h-6c-.55228475 0-1-.4477153-1-1s.44771525-1 1-1z"/></g></g></svg>

<svg width="24px" height="24px" viewBox="0 0 24 24" version="1.1" xmlns="http://www.w3.org/2000/svg" xmlns:xlink="http://www.w3.org/1999/xlink">
    <title>Icon For Bulb#1</title>
    <g stroke="none" stroke-width="1" fill="none" fill-rule="evenodd">
        <rect opacity="0" x="0" y="0" width="24" height="24"></rect>
        <circle fill="#000000" opacity="0.3" cx="12" cy="9" r="8"></circle>
        <path d="M14.5297296,11 L9.46184488,11 L11.9758349,17.4645458 L14.5297296,11 Z M10.5679953,19.3624463 L6.53815512,9 L17.4702704,9 L13.3744964,19.3674279 L11.9759405,18.814912 L10.5679953,19.3624463 Z" fill="#000000" fill-rule="nonzero" opacity="0.3"></path>
        <path d="M10,22 L14,22 L14,22 C14,23.1045695 13.1045695,24 12,24 L12,24 C10.8954305,24 10,23.1045695 10,22 Z" fill="#000000" opacity="0.3"></path>
        <path d="M9,20 C8.44771525,20 8,19.5522847 8,19 C8,18.4477153 8.44771525,18 9,18 C8.44771525,18 8,17.5522847 8,17 C8,16.4477153 8.44771525,16 9,16 L15,16 C15.5522847,16 16,16.4477153 16,17 C16,17.5522847 15.5522847,18 15,18 C15.5522847,18 16,18.4477153 16,19 C16,19.5522847 15.5522847,20 15,20 C15.5522847,20 16,20.4477153 16,21 C16,21.5522847 15.5522847,22 15,22 L9,22 C8.44771525,22 8,21.5522847 8,21 C8,20.4477153 8.44771525,20 9,20 Z" fill="#000000"></path>
    </g>
</svg>
